X: 39518
T: Taureen Derby
R: polka
M: 2/4
K: Edorian
|:BE GE|BE GE|D>E F/G/A|DE F/G/A|
BE GE|BE GE|D>E F/G/A|1 FE E>A:|2 FE E2||
|:ee/e/ dB|ee/e/ dB|AF dF|AB/c/ d^d|
ee/e/ dB|ee/e/ dB|AF dF|1 FE E2:|2 FE E>A||

